X: 111103
T: WHISTLE O'ER THE LAVE O'T
Q: "Strathspey."
R:  Strathspey.
%R: strathspey
B: James Kerr "Merry Melodies" v.1 p.11 s.1 #3
Z: 2017 John Chambers <jc:trillian.mit.edu>
M: C
L: 1/16
%%slurgraces yes
%%graceslurs yes
K: G
uG |:\
vG3vD (EG3) (BA3) B4 | vd3ue Bg3 {B}A3G E4 |\
G3D (EG3) B3A (Bg3) | vGuG3 vB3uG A4 G4 :|\
(d2ef) (g3f) (e2d2) B4 | vd3ue Bg3 (AG3) E4 |
(d2ef) (g3f) e2d2 Bg3 | GG3 B3G A4 G4 |\
(d2ef) (g3f) (e2d2) B4 | d3e Bg3 {B}A2G2 E4 |\
gb3 e3g d3e Bg3 | GG3 B3G A4 G4 |]

%%sep 1 1 500
%%sep 1 1 500

